storage/app/icons/phosphoricons/light/dots-nine-light.svg

<svg xmlns="http://www.w3.org/2000/svg" fill="currentColor" viewBox="0 0 256 256"><path d="M70 60a10 10 0 1 1-10-10 10 10 0 0 1 10 10m58-10a10 10 0 1 0 10 10 10 10 0 0 0-10-10m68 20a10 10 0 1 0-10-10 10 10 0 0 0 10 10M60 118a10 10 0 1 0 10 10 10 10 0 0 0-10-10m68 0a10 10 0 1 0 10 10 10 10 0 0 0-10-10m68 0a10 10 0 1 0 10 10 10 10 0 0 0-10-10M60 186a10 10 0 1 0 10 10 10 10 0 0 0-10-10m68 0a10 10 0 1 0 10 10 10 10 0 0 0-10-10m68 0a10 10 0 1 0 10 10 10 10 0 0 0-10-10"/></svg>

<svg xmlns="http://www.w3.org/2000/svg" viewBox="0 0 256 256" fill="currentColor"><path d="M70,60A10,10,0,1,1,60,50,10,10,0,0,1,70,60Zm58-10a10,10,0,1,0,10,10A10,10,0,0,0,128,50Zm68,20a10,10,0,1,0-10-10A10,10,0,0,0,196,70ZM60,118a10,10,0,1,0,10,10A10,10,0,0,0,60,118Zm68,0a10,10,0,1,0,10,10A10,10,0,0,0,128,118Zm68,0a10,10,0,1,0,10,10A10,10,0,0,0,196,118ZM60,186a10,10,0,1,0,10,10A10,10,0,0,0,60,186Zm68,0a10,10,0,1,0,10,10A10,10,0,0,0,128,186Zm68,0a10,10,0,1,0,10,10A10,10,0,0,0,196,186Z"/></svg>
